X: 24113
T: Longacre, The
R: reel
M: 4/4
K: Amixolydian
|:"A"A2 eA "D"fA "A"ec|"A"Ae ~e2 "G"dBGB|"A"A2 eA "D"fA "A"ec|"A"Ae ~e2 "G"dBGB:|
"Bm7add9"A2 edde c2|edde c2 e2|"D"A2 edde c2|edde c2 e2||

